X:1
T:Title
%%score { ( 1 3 ) | ( 2 4 ) }
L:1/8
M:6/8
K:Bb
V:1 treble nm="Grand Piano"
V:3 treble 
V:2 bass 
V:4 bass 
V:1
 z3 z2[Q:1/4=78] [B,D]/[CE]/ | [DF][DG][B,D] [DF][DG][B,D] | [DF][DB]c d2 [Fd]/[Fd]/ | ccc c=Bc | %4
 [Fd][DB][EG] [DF]2 [B,D]/[CE]/ | [DF][DG][B,D] [DF][DG][B,D] |[M:5/8] [DF][DB]c d2 |[M:1/8] d/d/ | %8
[M:3/4] cc de dc |[M:5/8] [DB]-[DB]- [DB]3 |[M:1/8] [Fd]/[=E_d]/ | %11
[M:3/4] [Fd][Ec] [DB][DF] [DG][DF] | B,B, B, [=Ec]2 [Ec]/[Ec]/ | cA GF GF | [D-F]3 [DB]2 D/[CE]/ | %15
 [DF][DG] [B,D][DF] [DG][B,D] | [DF][DB] c d2 [Fd]/[Fd]/ | cc de dc |[M:5/8] [DB]-[DB]- [DB]3 |] %19
V:2
 z3 z2 [B,,F,]/[B,,F,]/ | [B,,B,][B,,B,][B,,F,] [B,,B,][B,,B,][B,,F,] | %2
 [B,,B,][B,,B,][K:treble][F,A,F] [B,F]2[K:bass] [B,,B,]/[B,,B,]/ | %3
 [F,A,F][F,A,F][F,A,F] [F,A,E][F,_A,D][F,=A,E] | [B,,B,][B,,B,][B,,B,] [B,,B,]2 [B,,F,]/[B,,F,]/ | %5
 [B,,B,][B,,B,][B,,F,] [B,,B,][B,,B,][B,,F,] |[M:5/8] [B,,B,][B,,B,][K:treble][F,A,F] [B,F]2 | %7
[M:1/8] [B,F]/[B,F]/ |[M:3/4] [F,A,F][K:bass][F,A,F] [F,B,F][F,A,G] [F,B,F][F,A,E] | %9
[M:5/8] [B,,B,]-[B,,B,]- [B,,B,]3 |[M:1/8] [B,,B,]/[B,,B,]/ | %11
[M:3/4] [B,,B,][B,,B,] [B,,B,][B,,B,] [B,,B,][B,,B,] | C,C, C, [C,G,]2 [C,B,]/[C,B,]/ | %13
 [F,A,E][F,CE] [F,B,E][F,A,E] [F,A,E][F,A,E] | z F, G, F,2 [B,,F,B,]/[B,,F,]/ | %15
 [B,,B,][B,,B,] [B,,F,][B,,B,] [B,,B,][B,,F,] | %16
 [B,,B,][B,,B,][K:treble] [F,A,F] [B,F]2[K:bass] [B,,B,]/[B,,B,]/ | %17
 [F,A,F][F,A,F] [F,B,F][F,A,G] [F,B,F][F,A,E] |[M:5/8] [B,,F,B,]-[B,,F,B,]- [B,,F,B,]3 |] %19
V:3
 x6 | x6 | x6 | x6 | x6 | x6 |[M:5/8] x5 |[M:1/8] x |[M:3/4] x6 |[M:5/8] x5 |[M:1/8] x | %11
[M:3/4] x6 | [C=E]4 z2 | x6 | .B,2 z2 z2 | x6 | x6 | x6 |[M:5/8] x5 |] %19
V:4
 x6 | x6 | x2[K:treble] x3[K:bass] x | x6 | x6 | x6 |[M:5/8] x2[K:treble] x3 |[M:1/8] x | %8
[M:3/4] x[K:bass] x5 |[M:5/8] x5 |[M:1/8] x |[M:3/4] x6 | x6 | x6 | B,,6 | x6 | %16
 x2[K:treble] x3[K:bass] x | x6 |[M:5/8] x5 |] %19

